X:878
T:God Save Ireland
T: (abc by Comyn)
M:4/4
L:1/8
K:G
dc |"G"Bdgag2 gf| "C"ef g"G"ed2 dc|Bdgabb ag|"D"(a4a2)dc|
"G"Bdgag2gf| "C"ef g"G"ed2 ba|"G"gfge"D"fgaf|"G"(g4g2) z2|
 "G"b2 b2 bage| d4 g4 | "D"a2 a2 bagb| (a4a2)dc|
"G"Bdgag2gf|"C"efge"G"d2 ba|"G"gfge"D"fgaf|"G"g8|
